X: 180
T: He bian ge
%%abc-version 2.0
%%abcx-abcm2ps-target-version 5.9.1 (29 Sep 2008)
%%abc-creator hum2abc beta
%%abcx-conversion-date 2013/10/02 07:44:28
%%abc-edited-by Helmut Schaffrath
%%humdrum-veritas 312123125
%%humdrum-veritas-data 2180765592
%%continueall 1
%%barnumbers 0
L: 1/4
M: 3/4
K: F
GD [I:setbarnb 1]| 
FA | 
A2 | 
FD | 
F2A/ G/ | 
[M:2/4]FD | 
GD | 
D/ G/F | 
[M:3/4]AA2 | 
[M:2/4]A/ G/ A/ G/ | 
G/ F/D | 
D2 | 
D/ G/D | 
FA/ G/ | 
[M:3/4]DF/ G/ A/ G/ | 
[M:2/4]D2 | 
DG | 
FA- | 
A2 | 
A/ c/ G/ A/ | 
FD | 
D2 | 
FG | 
A/ c/ G/ A/- | 
A3/c/ | 
Gc | 
GG/ F/ | 
DD | 
GD- | 
D2 |]  



